ui/StatusQ/src/assets/img/icons/loading.svg

<svg fill="none" height="18" viewBox="0 0 18 18" width="18" xmlns="http://www.w3.org/2000/svg"><path clip-rule="evenodd" d="m15.4026 7.61613c-.3023-1.34009-1.0358-2.55001-2.0937-3.44779-1.0581-.89797-2.3837-1.43505-3.77924-1.52864-1.39552-.09359-2.78318.26155-3.95546 1.01066-1.17206.74898-2.06494 1.85081-2.54799 3.13896-.48298 1.28796-.5312 2.69509-.13772 4.01208.39353 1.3171 1.20852 2.4756 2.32606 3.3009 1.11775.8255 2.47755 1.2727 3.87631 1.2727v2.25c-1.87767 0-3.70638-.6001-5.21297-1.7127-1.50679-1.1128-2.61113-2.6792-3.145232-4.4668-.534155-1.78781-.468529-3.69861.186808-5.4462.655264-1.7474 1.864084-3.23581 3.443184-4.24489 1.57888-1.008943 3.44419-1.485307 5.31758-1.359664 1.87337.125645 3.65717.846784 5.08457 2.058074 1.4275 1.21147 2.4222 2.84865 2.8326 4.66825z" fill="#939ba1" fill-rule="evenodd"/></svg>

<svg width="18" height="18" viewBox="0 0 18 18" fill="none" xmlns="http://www.w3.org/2000/svg">
<path fill-rule="evenodd" clip-rule="evenodd" d="M15.4026 7.61613C15.1003 6.27604 14.3668 5.06612 13.3089 4.16834C12.2508 3.27037 10.9252 2.73329 9.52966 2.6397C8.13414 2.54611 6.74648 2.90125 5.5742 3.65036C4.40214 4.39934 3.50926 5.50117 3.02621 6.78932C2.54323 8.07728 2.49501 9.48441 2.88849 10.8014C3.28202 12.1185 4.09701 13.277 5.21455 14.1023C6.3323 14.9278 7.6921 15.375 9.09086 15.375L9.09086 17.625C7.21319 17.625 5.38448 17.0249 3.87789 15.9123C2.3711 14.7995 1.26676 13.2331 0.732658 11.4455C0.198503 9.65769 0.264129 7.74689 0.919466 5.9993C1.57473 4.2519 2.78355 2.76349 4.36265 1.75441C5.94153 0.745467 7.80684 0.269103 9.68023 0.394746C11.5536 0.520391 13.3374 1.24153 14.7648 2.45282C16.1923 3.66429 17.187 5.30147 17.5974 7.12107L15.4026 7.61613Z" fill="#939BA1"/>
</svg>
